app/javascript/images/hardpoints/weapons.svg

<svg fill="#428bca" stroke="#428bca" viewBox="0 0 38.87 38.87" xmlns="http://www.w3.org/2000/svg"><path d="m15.89 14.42-10.89 10.87h-1.29l-3.71-3.71v-1.3l10.87-10.87 3.07-1 4.72-4.72 6.63-3.69-3.68 6.63-4.72 4.72zm7.8 3.72 4.72-4.72 3.69-6.63-6.63 3.69-4.72 4.72-3.07 1-10.89 10.87v1.3l3.71 3.71h1.3l10.88-10.87zm8.56-.87-4.73 4.73-3.07 1-10.87 10.86v1.3l3.71 3.71h1.3l10.88-10.87 1-3.07 4.72-4.72 3.69-6.63z"/></svg>

<svg xmlns="http://www.w3.org/2000/svg" viewBox="0 0 38.87 38.87" style="fill: #428bca; stroke: #428bca">
  <path d="M15.89,14.42,5,25.29H3.71L0,21.58v-1.3L10.87,9.41l3.07-1,4.72-4.72L25.29,0,21.61,6.63l-4.72,4.72Zm7.8,3.72,4.72-4.72,3.69-6.63-6.63,3.69-4.72,4.72-3.07,1L6.79,27.07v1.3l3.71,3.71h1.3L22.68,21.21Zm8.56-.87L27.52,22l-3.07,1L13.58,33.86v1.3l3.71,3.71h1.3L29.47,28l1-3.07,4.72-4.72,3.69-6.63Z"></path>
</svg>
